.local/share/icons/Gruvbox-Plus-Dark/panel/16/indicator-notification-unread.svg

<svg xmlns="http://www.w3.org/2000/svg" width="16" height="16" version="1.1">
 <defs>
  <style id="current-color-scheme" type="text/css">
   .ColorScheme-Text { color:#ebdbb2; } .ColorScheme-Highlight { color:#458588; }
  </style>
 </defs>
 <path style="fill:currentColor" class="ColorScheme-Text" d="M 11.759766 2 C 11.718756 2.00164 11.678875 2.0055639 11.638672 2.0136719 L 3.7910156 3.6425781 C 3.7835356 3.6448981 3.7769334 3.6458775 3.7695312 3.6484375 C 2.6750269 3.908283 1.9043193 4.7232338 1.3847656 5.6582031 C 0.86521231 6.5930972 0.55268956 7.6892489 0.34765625 8.7597656 C 0.23738796 9.3354568 0.16309185 9.8949196 0.109375 10.423828 A 2.5 2.5 0 0 1 1.5 10 A 2.5 2.5 0 0 1 1.6953125 10.009766 C 1.9239505 8.0846822 2.464815 5.7480469 3.7890625 5.7480469 C 6.0346582 5.7480469 6.0957031 12.494141 6.0957031 12.494141 L 4 12.494141 A 2.5 2.5 0 0 1 4 12.5 A 2.5 2.5 0 0 1 3.5273438 13.958984 L 7.6777344 14 C 7.7342224 14.00075 7.7923849 13.995885 7.8476562 13.984375 L 15.384766 12.386719 C 15.722668 12.315349 15.967862 12.029135 15.984375 11.689453 C 15.984375 11.689453 16.09681 9.4591524 15.703125 7.1582031 C 15.506282 6.0077531 15.19095 4.8303977 14.611328 3.8554688 C 14.031707 2.8805398 13.090817 2.0740084 11.837891 2.0058594 C 11.812121 2.0045694 11.785546 2.0045694 11.759766 2.0058594 L 11.759766 2 z M 11.798828 3.5136719 C 12.440726 3.5661519 12.884102 3.9112329 13.296875 4.6054688 C 13.720969 5.3188223 14.02182 6.3540924 14.201172 7.4023438 C 14.511979 9.218827 14.441656 10.59443 14.427734 11.050781 L 7.828125 12.447266 C 7.8230211 10.570391 7.5943859 6.056865 5.3808594 4.84375 L 11.798828 3.5136719 z"/>
 <path style="opacity:0.3;fill:currentColor" class="ColorScheme-Text" d="M 3.7890625 5.7460938 C 2.4648149 5.7460936 1.9237362 8.0844147 1.6953125 10.009766 A 2.5 2.5 0 0 1 4 12.494141 L 6.0957031 12.494141 C 6.0957031 12.494141 6.0346583 5.7460938 3.7890625 5.7460938 z"/>
 <path style="fill:currentColor" class="ColorScheme-Text" d="M 9.6927076,5 8.0533866,5.16875 8,5.2406252 8.7877598,8.9343759 8.8632805,9 9.7890609,8.946872 9.8151008,8.8343719 9.2148414,6.1187467 9.98958,6.0578091 10,5.9796835 9.7356776,5.0593712 Z"/>
 <circle style="fill:currentColor" class="ColorScheme-Highlight" cx="1.5" cy="12.5" r="1.5"/>
</svg>

<svg width="16" height="16" version="1.1" xmlns="http://www.w3.org/2000/svg">
  <defs>
    <style id="current-color-scheme" type="text/css">.ColorScheme-Text { color:#ebdbb2; } .ColorScheme-Highlight { color:#458588; } .ColorScheme-NeutralText { color:#fe8019; } .ColorScheme-PositiveText { color:#689d6a; } .ColorScheme-NegativeText { color:#fb4934; }</style>
  </defs>
  <path class="ColorScheme-Text" d="m11.76 2c-0.04101 0.00164-0.08089 0.005564-0.1211 0.01367l-7.848 1.629c-0.00748 0.00232-0.01408 0.003299-0.02148 0.005859-1.095 0.2598-1.865 1.075-2.385 2.01-0.5196 0.9349-0.8321 2.031-1.037 3.102-0.1103 0.5757-0.1846 1.135-0.2383 1.664a2.5 2.5 0 0 1 1.391-0.4238 2.5 2.5 0 0 1 0.1953 0.009766c0.2286-1.925 0.7695-4.262 2.094-4.262 2.246 0 2.307 6.746 2.307 6.746h-2.096a2.5 2.5 0 0 1 0 0.005859 2.5 2.5 0 0 1-0.4727 1.459l4.15 0.04102c0.05649 7.5e-4 0.1147-0.004115 0.1699-0.01562l7.537-1.598c0.3379-0.07137 0.5831-0.3576 0.5996-0.6973 0 0 0.1124-2.23-0.2812-4.531-0.1968-1.15-0.5122-2.328-1.092-3.303-0.5796-0.9749-1.521-1.781-2.773-1.85-0.02577-0.00129-0.05234-0.00129-0.07812 0v-0.005859zm0.03906 1.514c0.6419 0.05248 1.085 0.3976 1.498 1.092 0.4241 0.7134 0.7249 1.749 0.9043 2.797 0.3108 1.816 0.2405 3.192 0.2266 3.648l-6.6 1.396c-0.005104-1.877-0.2337-6.39-2.447-7.604l6.418-1.33z" fill="currentColor"/>
  <path class="ColorScheme-Text" d="m3.789 5.746c-1.324-2e-7 -1.865 2.338-2.094 4.264a2.5 2.5 0 0 1 2.305 2.484h2.096s-0.06104-6.748-2.307-6.748z" fill="currentColor" opacity=".3"/>
  <path class="ColorScheme-Text" d="m9.693 5-1.639 0.1688-0.05339 0.07188 0.7878 3.694 0.07552 0.06562 0.9258-0.05313 0.02604-0.1125-0.6003-2.716 0.7747-0.06094 0.01042-0.07813-0.2643-0.9203z" fill="currentColor"/>
  <circle class="ColorScheme-Highlight" cx="1.5" cy="12.5" r="1.5" fill="currentColor"/>
</svg>
